src/assets/logo.svg

<svg xmlns="http://www.w3.org/2000/svg" width="145" height="73" fill="none" viewBox="0 0 145 73"><path fill="#2ECC82" d="M11.7402 61.6031C7.47286 56.9027 6.84198 51.7831 8.84044 46.1853C10.4392 41.6864 13.1078 37.8478 16.2465 34.357C23.825 25.9365 32.8338 19.7061 43.7234 16.4327C44.3121 16.211 44.9253 16.0623 45.5495 15.99C46.1603 15.9338 46.7733 16.0691 47.305 16.3776C47.8366 16.6861 48.2608 17.1527 48.5198 17.7136C49.1624 19.034 48.9116 20.2912 48.0339 21.4178C47.2854 22.3943 46.1726 22.7659 45.0754 23.1731C33.9467 27.3359 24.4951 33.847 17.5161 43.6432C13.8562 48.7825 11.4267 54.4239 11.8695 60.9706C11.8434 61.1846 11.8002 61.3962 11.7402 61.6031Z"/><path fill="#F5F3FF" d="M22.6458 68.8577C17.4497 65.695 15.8549 59.9786 18.4451 53.9933C20.5689 49.0873 24.076 45.2565 28.0103 41.8013C35.5848 35.1558 44.1038 30.2616 53.9276 27.8659C55.5185 27.4706 57.0625 28.1506 57.5719 29.4473C58.0813 30.7439 57.5366 32.2818 55.8751 33.0052C53.9825 33.8196 51.9566 34.3138 50.0326 35.0649C40.3537 38.8285 32.0072 44.45 25.906 53.0722C23.4373 56.5669 21.674 60.3858 21.7523 64.8412C21.7758 66.2169 22.2539 67.478 22.6458 68.8577Z"/><path fill="#F5F3FF" d="M2.74328 48.0788C0.807513 43.0186 1.13668 38.3339 3.17041 33.7244C5.57249 28.2688 9.54982 24.0823 13.9386 20.2436C16.5639 17.9979 19.3296 15.9247 22.2185 14.0369C23.288 13.2583 24.5886 12.8706 25.9059 12.9379C26.3202 12.9443 26.7257 13.0591 27.0829 13.271C27.44 13.4829 27.7366 13.7846 27.9435 14.1468C28.1504 14.5089 28.2606 14.919 28.2634 15.337C28.2661 15.755 28.1613 16.1666 27.9592 16.5315C27.4733 17.5475 26.6191 18.1721 25.7139 18.7651C18.974 23.1651 13.0373 28.4349 8.47222 35.1436C5.95259 38.832 3.94236 42.7656 3.10771 47.2288C3.00698 47.5208 2.88518 47.8049 2.74328 48.0788Z"/><path fill="#2ECC82" d="M46.5444 71.5332C44.2599 72.1815 41.9793 72.3871 39.7065 71.5925C37.2809 70.7426 36.2621 68.9478 36.842 66.4532C37.6649 62.8953 40.0083 60.3137 42.5788 57.9931C47.5672 53.4982 53.2882 50.2882 59.8401 48.7306C62.2108 48.1652 64.6129 47.9122 67.0228 48.5329C67.3549 48.5934 67.6769 48.7012 67.9789 48.8531C68.9507 49.4382 70.0087 50.0905 69.6678 51.4426C69.3387 52.7274 68.2219 53.1859 67.0306 52.9922C63.8791 52.4227 60.6344 52.7051 57.6261 53.8106C51.7483 56.0205 46.5405 59.1791 42.7356 64.3421C42.3663 64.8544 42.0535 65.4059 41.8029 65.9867C40.4589 69.0386 41.6305 71.0825 44.9143 71.4423C45.4394 71.5055 45.9958 71.5055 46.5444 71.5332Z"/><path fill="#2ECC82" d="M35.7412 72.372C33.9928 72.4463 32.2442 72.2313 30.5647 71.7354C28.2998 71.0673 27.1007 69.3634 26.9283 66.9677C26.7245 64.1293 27.5474 61.5597 28.8876 59.1324C32.0695 53.3803 36.8031 49.17 42.1911 45.6476C43.8016 44.5921 45.3612 44.8569 46.1802 46.122C46.9992 47.3871 46.6112 49.1029 45.0438 50.1544C41.0194 52.8625 37.336 55.9223 34.5068 59.9349C33.6499 61.1195 32.954 62.4145 32.4378 63.7854C30.9879 67.7308 31.8657 70.1858 35.7412 72.372Z"/><path fill="#F5F3FF" d="M47.497 65.1096C47.3402 66.7818 48.3473 66.8806 49.4876 66.7699C50.8765 66.5911 52.2246 66.1726 53.4728 65.5326C56.3294 64.1806 59.045 62.5913 61.1257 60.1166C62.4228 58.5748 62.219 57.9541 60.1304 57.4639C61.2355 57.3888 62.0897 57.1239 63.0223 57.286C64.5427 57.5548 64.9816 58.3217 64.3468 59.7766C63.712 61.2314 62.6461 62.2711 61.498 63.2396C58.0105 66.177 54.1507 68.4066 49.6287 69.2843C49.346 69.3496 49.0593 69.3959 48.7705 69.4227C47.881 69.4582 46.968 69.4226 46.4194 68.6043C45.8198 67.7188 46.4194 66.936 46.8112 66.1769C47.0228 65.8053 47.2776 65.4614 47.497 65.1096Z"/><path fill="#F5F3FF" d="M7.91968 10.6451C10.4918 6.72806 13.894 3.4361 17.8807 1.00699C18.1757 0.841606 18.4942 0.722934 18.825 0.655139C19.0993 0.591886 19.452 0.536526 19.6401 0.789538C19.7358 0.933106 19.7733 1.10826 19.7449 1.27887C19.7164 1.44949 19.6242 1.60262 19.4873 1.70673C19.1024 2.14468 18.6743 2.54205 18.2098 2.89272C14.7331 5.10123 11.4445 7.59779 8.37815 10.3566C8.2345 10.4668 8.08102 10.5634 7.91968 10.6451Z"/><path fill="#2ECC82" d="M0.0588379 33.25C0.290033 32.23 1.4029 29.0674 6.79876 22.8015C7.89595 21.4837 9.03887 20.2252 10.2275 19.026C15.7409 13.4914 22.2104 9.18628 29.3226 5.69947C30.0412 5.41214 30.7043 5.00001 31.2819 4.48183C32.2106 3.52117 32.6377 2.43402 31.9637 1.17292C31.3603 0.0304114 30.1338 -0.341189 28.6643 0.342732C20.4824 4.1379 12.7158 8.60515 6.63026 15.4839C3.53852 18.9747 1.43425 22.9951 0.658377 27.6126C0.572169 28.2254 0.266519 30.5301 0.117614 32.2261C0.115988 32.5682 0.0963705 32.91 0.0588379 33.25Z"/><path fill="#fff" d="M0 33.6413C0.0235114 33.5201 0.0431077 33.3976 0.058782 33.2737C0.029272 33.3944 0.00960993 33.5173 0 33.6413Z"/><path fill="#F5F3FF" d="M71.7097 16.1214H79.4802C81.1812 16.0864 82.8667 16.4533 84.4019 17.1928C85.7724 17.8594 86.9253 18.9073 87.7249 20.2131C88.5068 21.5984 88.918 23.1652 88.918 24.7594C88.918 26.3536 88.5068 27.9204 87.7249 29.3057C86.9253 30.6115 85.7724 31.6595 84.4019 32.326C82.8667 33.0655 81.1812 33.4325 79.4802 33.3974H71.7097V16.1214ZM79.2843 30.1003C80.9928 30.1003 82.3564 29.6194 83.3753 28.6574C84.3941 27.6954 84.9035 26.3921 84.9035 24.7476C84.9035 23.1083 84.3941 21.8063 83.3753 20.8417C82.3564 19.8771 80.9928 19.3948 79.2843 19.3948H75.6675V30.0963L79.2843 30.1003Z"/><path fill="#F5F3FF" d="M93.5909 33.1165C92.497 32.8293 91.465 32.3415 90.5461 31.6775L91.8902 28.669C92.6867 29.2421 93.5691 29.6825 94.5039 29.9736C95.4826 30.2992 96.5063 30.466 97.5369 30.4678C98.6615 30.4678 99.4961 30.3018 100.029 29.9618C100.271 29.8325 100.474 29.639 100.616 29.4022C100.757 29.1654 100.832 28.8942 100.832 28.6176C100.836 28.4224 100.795 28.2289 100.713 28.0521C100.631 27.8752 100.509 27.7198 100.358 27.5977C99.9964 27.3015 99.5813 27.0786 99.1356 26.9414C98.6367 26.7807 97.9653 26.6001 97.1215 26.3998C96.0367 26.1525 94.9676 25.8396 93.92 25.4629C93.0919 25.1537 92.3556 24.6367 91.7805 23.9607C91.1547 23.1811 90.8377 22.1951 90.891 21.1934C90.8798 20.2244 91.1599 19.2748 91.6943 18.4696C92.3023 17.5997 93.1477 16.9267 94.1277 16.5324C95.388 16.0211 96.7393 15.7775 98.0972 15.8169C99.1765 15.8146 100.252 15.9473 101.299 16.2122C102.266 16.4424 103.192 16.8253 104.042 17.3468L102.823 20.379C101.388 19.5157 99.7525 19.0482 98.0815 19.023C96.9739 19.023 96.1549 19.2036 95.6246 19.5646C95.3821 19.7141 95.1824 19.9246 95.045 20.1755C94.9076 20.4264 94.8373 20.7091 94.8409 20.9957C94.8401 21.2833 94.9273 21.5641 95.0908 21.7998C95.2542 22.0354 95.4858 22.2144 95.7539 22.3121C96.655 22.692 97.5926 22.9769 98.5518 23.1621C99.6365 23.4095 100.706 23.7223 101.753 24.099C102.577 24.4066 103.312 24.916 103.893 25.5815C104.52 26.3482 104.837 27.3249 104.782 28.3172C104.79 29.2788 104.506 30.2198 103.967 31.0134C103.349 31.883 102.496 32.5554 101.51 32.9505C100.244 33.4591 98.8878 33.7025 97.5251 33.666C96.1944 33.6737 94.8694 33.4887 93.5909 33.1165Z"/><path fill="#F5F3FF" d="M123.047 33.3779L123.019 23.0242L117.988 31.5554H116.205L111.193 23.2535V33.3858H107.478V16.1296H110.754L117.157 26.8549L123.462 16.1296H126.711L126.758 33.3858L123.047 33.3779Z"/><path fill="#F5F3FF" d="M144.058 30.1719V33.378H130.814V16.1218H143.745V19.3279H134.748V23.0718H142.71V26.179H134.748V30.1719H144.058Z"/><path fill="#2ECC82" d="M89.2492 38.3987H90.0329V40.6087C89.7447 40.8439 89.4168 41.0246 89.065 41.1423C88.692 41.2661 88.3017 41.3288 87.909 41.3281C87.3733 41.3298 86.846 41.1937 86.3769 40.9328C85.9338 40.6917 85.5641 40.3337 85.3071 39.897C85.053 39.4436 84.9194 38.9315 84.9194 38.4106C84.9194 37.8897 85.053 37.3776 85.3071 36.9242C85.5637 36.4858 85.9353 36.1274 86.3808 35.8884C86.8563 35.6356 87.3873 35.5078 87.9247 35.5168C88.3425 35.5115 88.7574 35.5866 89.1473 35.7382C89.5037 35.8805 89.8228 36.1037 90.0799 36.3905L89.5862 36.8925C89.3716 36.6789 89.1169 36.5107 88.8369 36.398C88.5569 36.2853 88.2574 36.2303 87.956 36.2363C87.5559 36.2297 87.1607 36.3264 86.8079 36.517C86.4784 36.7013 86.2068 36.9752 86.0242 37.3077C85.8365 37.6494 85.7381 38.0337 85.7381 38.4244C85.7381 38.8152 85.8365 39.1995 86.0242 39.5412C86.2083 39.8725 86.4795 40.1461 86.8079 40.3319C87.1573 40.5244 87.5501 40.6225 87.9482 40.6166C88.4127 40.6263 88.87 40.5 89.2648 40.2528L89.2492 38.3987Z"/><path fill="#2ECC82" d="M91.5496 35.6035H92.3529V40.561H95.3897V41.2646H91.5496V35.6035Z"/><path fill="#2ECC82" d="M97.2079 40.9522C96.7633 40.7115 96.3931 40.3517 96.1381 39.9125C95.8839 39.4612 95.7502 38.951 95.7502 38.432C95.7502 37.9129 95.8839 37.4027 96.1381 36.9514C96.3931 36.5122 96.7633 36.1524 97.2079 35.9117C97.6801 35.6649 98.2042 35.5361 98.7361 35.5361C99.268 35.5361 99.792 35.6649 100.264 35.9117C100.708 36.1508 101.077 36.5093 101.33 36.9475C101.582 37.401 101.714 37.9121 101.714 38.432C101.714 38.9518 101.582 39.4629 101.33 39.9164C101.076 40.3537 100.707 40.712 100.264 40.9522C99.792 41.199 99.268 41.3277 98.7361 41.3277C98.2042 41.3277 97.6801 41.199 97.2079 40.9522ZM99.8529 40.3236C100.181 40.137 100.452 39.8636 100.637 39.5329C100.824 39.1926 100.923 38.8096 100.923 38.4201C100.923 38.0306 100.824 37.6476 100.637 37.3073C100.453 36.9757 100.182 36.702 99.8529 36.5166C99.5133 36.3243 99.1294 36.226 98.74 36.2319C98.3495 36.2265 97.9643 36.3247 97.6232 36.5166C97.2938 36.701 97.0223 36.9749 96.8395 37.3073C96.6543 37.6484 96.5572 38.0311 96.5572 38.4201C96.5572 38.8091 96.6543 39.1918 96.8395 39.5329C97.0235 39.8643 97.2947 40.138 97.6232 40.3236C97.9643 40.5155 98.3495 40.6137 98.74 40.6082C99.1294 40.6141 99.5133 40.5159 99.8529 40.3236Z"/><path fill="#2ECC82" d="M107.486 38.8254C107.681 39.0863 107.781 39.4077 107.768 39.7346C107.778 39.9544 107.733 40.1733 107.637 40.3709C107.541 40.5685 107.398 40.7386 107.219 40.8653C106.739 41.1591 106.181 41.2971 105.62 41.2606H102.94V35.6035H105.46C105.984 35.5742 106.504 35.7126 106.945 35.9988C107.114 36.1211 107.25 36.2837 107.342 36.472C107.433 36.6602 107.477 36.8684 107.47 37.078C107.48 37.3393 107.414 37.5977 107.28 37.8217C107.147 38.0457 106.951 38.2255 106.718 38.3392C107.019 38.4129 107.289 38.5836 107.486 38.8254ZM103.743 36.2558V38.0663H105.385C105.718 38.0872 106.05 38.0073 106.338 37.8371C106.441 37.7578 106.524 37.6555 106.582 37.5382C106.639 37.421 106.669 37.2919 106.669 37.161C106.669 37.0302 106.639 36.9011 106.582 36.7839C106.524 36.6666 106.441 36.5643 106.338 36.485C106.05 36.3148 105.718 36.2349 105.385 36.2558H103.743ZM106.612 40.379C106.726 40.3015 106.818 40.1949 106.879 40.0699C106.94 39.945 106.966 39.8062 106.957 39.6675C106.957 39.0389 106.502 38.7226 105.585 38.7226H103.743V40.6083H105.585C105.942 40.633 106.299 40.5534 106.612 40.379Z"/><path fill="#2ECC82" d="M112.584 39.8454H109.602L108.987 41.2608H108.16L110.704 35.5996H111.487L114.038 41.2608H113.204L112.584 39.8454ZM112.306 39.2011L111.095 36.4337L109.885 39.2011H112.306Z"/><path fill="#2ECC82" d="M114.888 35.6035H115.672V40.561H118.709V41.2646H114.888V35.6035Z"/><path fill="#2ECC82" d="M121.797 35.6035H122.6V40.561H125.637V41.2646H121.797V35.6035Z"/><path fill="#2ECC82" d="M126.558 35.6035H127.361V41.2646H126.558V35.6035Z"/><path fill="#2ECC82" d="M133.87 35.6035V41.2646H133.212L129.845 37.0425V41.2646H129.062V35.6035H129.716L133.086 39.8257V35.6035H133.87Z"/><path fill="#2ECC82" d="M137.38 38.7662L136.354 39.8177V41.2804H135.57V35.6035H136.354V38.7662L139.402 35.6035H140.315L137.917 38.1534L140.468 41.2646H139.532L137.38 38.7662Z"/><path fill="#2ECC82" d="M141.613 41.1383C141.271 41.0349 140.954 40.8598 140.684 40.6244L140.982 39.9919C141.223 40.2027 141.502 40.3639 141.805 40.4663C142.133 40.5876 142.481 40.6491 142.831 40.6481C143.194 40.6738 143.557 40.5913 143.874 40.4109C143.98 40.3437 144.068 40.2498 144.129 40.1383C144.189 40.0268 144.22 39.9015 144.218 39.7745C144.221 39.6865 144.206 39.5989 144.174 39.5172C144.142 39.4356 144.093 39.3616 144.03 39.3C143.898 39.1754 143.74 39.081 143.568 39.0233C143.384 38.9561 143.121 38.8849 142.784 38.8019C142.437 38.7247 142.095 38.6229 141.761 38.4975C141.506 38.3962 141.278 38.2334 141.099 38.0231C140.903 37.7811 140.804 37.4736 140.821 37.1613C140.818 36.8711 140.9 36.5866 141.056 36.343C141.237 36.0855 141.485 35.8842 141.773 35.7619C142.146 35.6081 142.546 35.5341 142.949 35.5444C143.28 35.5442 143.609 35.5881 143.928 35.6749C144.224 35.7478 144.504 35.8737 144.755 36.0465L144.489 36.6909C144.255 36.5413 144.002 36.4256 143.736 36.3469C143.482 36.273 143.218 36.2344 142.953 36.2323C142.594 36.2071 142.237 36.2941 141.93 36.4813C141.825 36.5525 141.739 36.6491 141.68 36.7623C141.621 36.8756 141.591 37.0018 141.593 37.1297C141.59 37.218 141.605 37.306 141.638 37.3878C141.671 37.4696 141.721 37.5434 141.785 37.6041C141.922 37.7296 142.084 37.8252 142.259 37.8848C142.516 37.9697 142.778 38.041 143.043 38.0983C143.389 38.1778 143.729 38.2808 144.062 38.4066C144.315 38.5089 144.54 38.6702 144.72 38.8771C144.915 39.1154 145.014 39.4186 144.998 39.727C144.995 40.0082 144.912 40.2827 144.759 40.5177C144.577 40.7805 144.322 40.9839 144.026 41.1028C143.644 41.2558 143.235 41.3284 142.823 41.3162C142.413 41.322 142.004 41.262 141.613 41.1383Z"/></svg>

<svg xmlns="http://www.w3.org/2000/svg" width="145" height="73" fill="none"><path fill="#2ECC82" d="M11.74 61.603c-4.267-4.7-4.898-9.82-2.9-15.418 1.6-4.499 4.268-8.337 7.407-11.828 7.578-8.42 16.587-14.65 27.476-17.924a7.693 7.693 0 0 1 1.827-.443c.61-.056 1.223.08 1.755.388a2.99 2.99 0 0 1 1.215 1.336c.642 1.32.392 2.577-.486 3.704-.749.976-1.861 1.348-2.959 1.755-11.128 4.163-20.58 10.674-27.559 20.47-3.66 5.14-6.09 10.78-5.646 17.328a4.12 4.12 0 0 1-.13.632Z"/><path fill="#F5F3FF" d="M22.646 68.858c-5.196-3.163-6.791-8.88-4.2-14.865 2.123-4.906 5.63-8.736 9.564-12.192 7.575-6.645 16.094-11.54 25.918-13.935 1.59-.395 3.135.285 3.644 1.581.51 1.297-.035 2.835-1.697 3.558-1.892.815-3.918 1.309-5.842 2.06-9.68 3.764-18.026 9.385-24.127 18.007-2.469 3.495-4.232 7.314-4.154 11.77.024 1.375.502 2.636.894 4.016ZM2.743 48.079c-1.935-5.06-1.606-9.745.427-14.355 2.402-5.455 6.38-9.642 10.769-13.48a80.387 80.387 0 0 1 8.28-6.207 5.764 5.764 0 0 1 3.687-1.1 2.385 2.385 0 0 1 2.037 1.21 2.432 2.432 0 0 1 .016 2.385c-.486 1.015-1.34 1.64-2.245 2.233-6.74 4.4-12.677 9.67-17.242 16.379-2.52 3.688-4.53 7.622-5.364 12.085a6.379 6.379 0 0 1-.365.85Z"/><path fill="#2ECC82" d="M46.544 71.533c-2.284.648-4.565.854-6.837.06-2.426-.85-3.445-2.645-2.865-5.14.823-3.558 3.166-6.14 5.737-8.46 4.988-4.495 10.71-7.705 17.261-9.262 2.37-.566 4.773-.819 7.183-.198.332.06.654.168.956.32.972.585 2.03 1.237 1.689 2.59-.33 1.284-1.446 1.743-2.637 1.55a17.985 17.985 0 0 0-9.405.818c-5.878 2.21-11.085 5.368-14.89 10.531a8.72 8.72 0 0 0-.933 1.645c-1.344 3.052-.172 5.096 3.111 5.455.525.064 1.082.064 1.63.091Z"/><path fill="#2ECC82" d="M35.741 72.372a15.895 15.895 0 0 1-5.176-.637c-2.265-.668-3.464-2.372-3.637-4.767-.204-2.839.62-5.408 1.96-7.836 3.181-5.752 7.915-9.962 13.303-13.484 1.61-1.056 3.17-.791 3.99.474.818 1.265.43 2.98-1.137 4.032-4.025 2.708-7.708 5.768-10.537 9.78a16.475 16.475 0 0 0-2.07 3.851c-1.45 3.946-.571 6.4 3.304 8.587Z"/><path fill="#F5F3FF" d="M47.497 65.11c-.157 1.672.85 1.77 1.99 1.66a12.128 12.128 0 0 0 3.986-1.237c2.856-1.352 5.572-2.942 7.653-5.416 1.297-1.542 1.093-2.163-.996-2.653 1.105-.075 1.96-.34 2.892-.178 1.52.269 1.96 1.036 1.325 2.49-.635 1.455-1.7 2.495-2.849 3.464-3.487 2.937-7.347 5.167-11.87 6.044a6.47 6.47 0 0 1-.858.139c-.889.035-1.802 0-2.35-.819-.6-.885 0-1.668.391-2.427.212-.372.467-.716.686-1.067ZM7.92 10.645a31.578 31.578 0 0 1 9.96-9.638c.296-.165.614-.284.945-.352.274-.063.627-.118.815.135a.681.681 0 0 1-.153.917 8.597 8.597 0 0 1-1.277 1.186 74.12 74.12 0 0 0-9.832 7.464c-.143.11-.297.206-.458.288Z"/><path fill="#2ECC82" d="M.059 33.25c.231-1.02 1.344-4.183 6.74-10.448a58.838 58.838 0 0 1 3.428-3.776c5.514-5.535 11.983-9.84 19.096-13.327a6.608 6.608 0 0 0 1.959-1.217c.929-.96 1.356-2.048.682-3.31-.604-1.142-1.83-1.513-3.3-.83C20.482 4.139 12.716 8.606 6.63 15.485c-3.09 3.489-5.196 7.51-5.972 12.128-.086.612-.391 2.917-.54 4.613a9.755 9.755 0 0 1-.06 1.024Z"/><path fill="#fff" d="M0 33.641a5.66 5.66 0 0 0 .059-.367c-.03.12-.05.243-.059.367Z"/><path fill="#F5F3FF" d="M71.71 16.121h7.77a10.826 10.826 0 0 1 4.922 1.072 8.004 8.004 0 0 1 3.323 3.02 9.25 9.25 0 0 1 0 9.093 8.003 8.003 0 0 1-3.323 3.02 10.825 10.825 0 0 1-4.922 1.071h-7.77V16.121Zm7.574 13.98c1.709 0 3.072-.482 4.091-1.444 1.02-.962 1.528-2.265 1.528-3.91 0-1.639-.509-2.94-1.528-3.905-1.019-.965-2.382-1.447-4.09-1.447h-3.617v10.701l3.616.004Zm14.306 3.016a9.178 9.178 0 0 1-3.044-1.44l1.344-3.008a9.115 9.115 0 0 0 2.614 1.305 9.66 9.66 0 0 0 3.033.494c1.124 0 1.96-.166 2.492-.506a1.52 1.52 0 0 0 .803-1.344 1.282 1.282 0 0 0-.474-1.02 3.601 3.601 0 0 0-1.222-.657c-.5-.16-1.17-.34-2.014-.541a27.574 27.574 0 0 1-3.202-.937 5.196 5.196 0 0 1-2.14-1.502 4.076 4.076 0 0 1-.889-2.768 4.826 4.826 0 0 1 .803-2.723 5.454 5.454 0 0 1 2.434-1.938 9.801 9.801 0 0 1 3.97-.715 12.94 12.94 0 0 1 3.201.395c.967.23 1.893.613 2.743 1.135l-1.219 3.032a9.474 9.474 0 0 0-4.741-1.356c-1.108 0-1.927.18-2.457.542a1.648 1.648 0 0 0-.784 1.43c0 .288.086.57.25.805.163.235.395.414.663.512.901.38 1.839.665 2.798.85a27.56 27.56 0 0 1 3.201.937 5.304 5.304 0 0 1 2.14 1.482c.627.767.944 1.744.889 2.736a4.729 4.729 0 0 1-.815 2.696 5.547 5.547 0 0 1-2.457 1.937 9.973 9.973 0 0 1-3.985.716 13.789 13.789 0 0 1-3.934-.55Zm29.457.261-.028-10.354-5.031 8.531h-1.783l-5.012-8.302v10.133h-3.715V16.13h3.276l6.403 10.725 6.305-10.725h3.249l.047 17.256-3.711-.008Zm21.011-3.206v3.206h-13.244V16.122h12.931v3.206h-8.997v3.744h7.962v3.107h-7.962v3.993h9.31Z"/><path fill="#2ECC82" d="M89.25 38.399h.783v2.21a3.073 3.073 0 0 1-.968.533 3.649 3.649 0 0 1-1.156.186 3.131 3.131 0 0 1-1.532-.395 2.788 2.788 0 0 1-1.07-1.036 3.041 3.041 0 0 1 0-2.973 2.753 2.753 0 0 1 1.074-1.036 3.175 3.175 0 0 1 1.544-.371c.418-.006.832.07 1.222.221.357.142.676.366.933.653l-.494.502a2.257 2.257 0 0 0-1.63-.657c-.4-.006-.795.09-1.148.281-.33.184-.601.458-.784.79a2.32 2.32 0 0 0 0 2.234c.184.332.456.605.784.79.35.193.742.291 1.14.286.465.01.922-.117 1.317-.364l-.016-1.854Zm2.3-2.796h.803v4.958h3.037v.704h-3.84v-5.662Zm5.658 5.349c-.445-.24-.815-.6-1.07-1.04a3.017 3.017 0 0 1 0-2.96c.255-.44.625-.8 1.07-1.04a3.299 3.299 0 0 1 3.056 0 2.72 2.72 0 0 1 1.066 1.035 3.056 3.056 0 0 1 0 2.97 2.748 2.748 0 0 1-1.066 1.035 3.297 3.297 0 0 1-3.056 0Zm2.645-.628c.328-.187.599-.46.784-.791a2.312 2.312 0 0 0 0-2.226 2.045 2.045 0 0 0-.784-.79 2.19 2.19 0 0 0-1.113-.285 2.215 2.215 0 0 0-1.117.285c-.33.184-.6.458-.784.79a2.333 2.333 0 0 0 0 2.226c.184.331.456.605.784.79.341.193.727.29 1.117.285a2.19 2.19 0 0 0 1.113-.284Zm7.633-1.499c.195.261.295.583.282.91a1.32 1.32 0 0 1-.549 1.13 2.723 2.723 0 0 1-1.599.396h-2.68v-5.658h2.52a2.478 2.478 0 0 1 1.485.396 1.273 1.273 0 0 1 .525 1.079 1.348 1.348 0 0 1-.752 1.261c.301.074.571.245.768.486Zm-3.743-2.57v1.811h1.642c.333.021.665-.059.953-.229a.854.854 0 0 0 0-1.352c-.288-.17-.62-.25-.953-.23h-1.642Zm2.869 4.124a.795.795 0 0 0 .345-.712c0-.628-.455-.944-1.372-.944h-1.842v1.885h1.842c.357.025.714-.055 1.027-.229Zm5.972-.534h-2.982l-.615 1.416h-.827l2.544-5.661h.783l2.551 5.66h-.834l-.62-1.415Zm-.278-.644-1.211-2.767-1.21 2.767h2.421Zm2.582-3.598h.784v4.958h3.037v.704h-3.821v-5.662Zm6.909 0h.803v4.958h3.037v.704h-3.84v-5.662Zm4.761 0h.803v5.662h-.803v-5.662Zm7.312 0v5.662h-.658l-3.367-4.223v4.223h-.783v-5.662h.654l3.37 4.223v-4.223h.784Zm3.51 3.163-1.026 1.052v1.462h-.784v-5.677h.784v3.163l3.048-3.163h.913l-2.398 2.55 2.551 3.112h-.936l-2.152-2.499Zm4.233 2.372a2.527 2.527 0 0 1-.929-.514l.298-.632c.241.21.52.372.823.474a2.92 2.92 0 0 0 1.026.182c.363.026.726-.057 1.043-.237a.748.748 0 0 0 .3-.894.62.62 0 0 0-.144-.217 1.255 1.255 0 0 0-.462-.277 8.23 8.23 0 0 0-.784-.221 7.618 7.618 0 0 1-1.023-.304 1.689 1.689 0 0 1-.662-.475 1.26 1.26 0 0 1-.278-.862 1.49 1.49 0 0 1 .235-.818 1.68 1.68 0 0 1 .717-.581 2.89 2.89 0 0 1 1.176-.218c.331 0 .66.044.979.13.296.074.576.2.827.373l-.266.644a2.887 2.887 0 0 0-1.536-.459 1.73 1.73 0 0 0-1.023.25.769.769 0 0 0-.337.648.632.632 0 0 0 .192.474c.137.126.299.221.474.28.257.086.519.157.784.214.346.08.686.183 1.019.309.253.102.478.263.658.47.195.238.294.542.278.85a1.479 1.479 0 0 1-.239.79 1.632 1.632 0 0 1-.733.586 2.995 2.995 0 0 1-1.203.213 3.834 3.834 0 0 1-1.21-.178Z"/></svg>
